launcher/android/assets/skins/day/svg/mapCITO0.svg

<svg enable-background="new 0 0 58.32 58.81" height="58.8058" viewBox="0 0 58.32 58.81" width="58.3182" xmlns="http://www.w3.org/2000/svg" xmlns:xlink="http://www.w3.org/1999/xlink"><linearGradient id="a"><stop offset="0" stop-color="#f3f8f8"/><stop offset="1" stop-color="#00eefc"/></linearGradient><radialGradient id="b" cx="19.1434" cy="35.998" gradientUnits="userSpaceOnUse" r="11.6018" xlink:href="#a"/><radialGradient id="c" cx="18.335" cy="27.0573" gradientUnits="userSpaceOnUse" r="2.82919" xlink:href="#a"/><g stroke-linejoin="round"><ellipse cx="29.6619" cy="29.2303" fill="#16376c" rx="28.6563" ry="28.9029" stroke-width=".2"/><path d="m30.6977.672607c11.2408 1.279053 16.3508 6.850583 13.5143 6.461303-10.0618-1.3811-12.4519 1.65991-12.6266 1.77564-8.4094 5.57335-5.9047 14.15905-1.6769 19.63025 8.3848 10.8509 3.5512 18.1506.9865 20.7154-8.8113 8.8113-29.29754.6905-28.85368-19.6796.34776-15.9588 12.92968-30.69242 28.65638-28.902993z" fill="#339b2c" stroke-width=".2"/><ellipse cx="29.1563" cy="29.4029" fill="none" rx="28.6563" ry="28.9029" stroke="#16376c"/><g fill="#fff"><path d="m11.4641 47.2805h5.081l.231-7.5571.6928-2.661 1.3858-1.4901 1.7321.2129 1.8476 1.1707 2.5406 3.1933 1.0393.745 2.5404.2129h1.3858l.1154-2.0224-3.8107-3.5124-2.656-1.703-2.3095-1.2774 2.8869-3.2995 1.5012-2.8738.5774-1.3838-2.3095.8516-2.425 2.661-1.7322 1.4901-1.1548.5322-2.3095-.8516-1.3857-.3193-.8084.8516v-1.2774l-.4619-.9579-3.3488-3.1932-1.03933-.1064.11547 1.8095 1.96316 2.3416 1.0392.5322h-4.15713l1.27025 1.4902 3.69528-.3193-1.9631 1.1708-1.27026.7451-.23096.9579 1.15472.2129 1.0394-.5323 1.2702-.7449.9238-.1065.9238 1.2772-1.0393 2.5546-1.0393 1.5965-.9238 2.3417-.5774 2.661z" stroke="url(#b)"/><path d="m18.2773 24.9283-1.3857.3194-.6929 1.0644-.3464 1.703.6928.9579.9238-.2129.3465-.745.8468.071.077.5676.5389.4968.9238-.4968.2694-1.0643.3465-1.1708-.6929-1.1709z" stroke="url(#c)"/><path d="m39.5859 27.7274c-1.6075-.1587-4.5489.0716-5.2731-.8172-.7243-.8887.7684-2.8963 1.4127-4.2809.6442-1.3848.44-2.1468-.7657-1.0398-1.2056 1.1069-3.4127 4.0827-3.315 5.638s2.5001 1.6902 4.567 1.7458c2.0669.0555 3.7981.0317 4.5268-.2539.7287-.2857.4549-.8333-1.1527-.992z" stroke="#fff"/><path d="m32.6404 20.8744c-.4777-.047.3025-.5256 1.3117-1.0634 1.0091-.5376 2.2472-1.1339 2.8839-1.3409s.672-.0245 1.0227 1.0721c.3508 1.0967 1.0169 3.1076.8579 3.3615s-1.1431-1.249-2.503-1.8081-3.0955-.1743-3.5732-.2212z" stroke="#fff"/><path d="m49.8206 21.588c.6508 1.3301 2.3433 3.5033 1.8487 4.5111-.4946 1.008-3.1763.8504-4.8333 1.0414-1.657.1912-2.2894.731-.6195 1.1156 1.67.3845 5.6422.6138 7.0927-.2399s.3793-2.7902-.6006-4.426c-.9799-1.6357-1.8685-2.9708-2.5082-3.3949s-1.0306.0626-.3798 1.3927z" stroke="#fff"/><path d="m46.6869 30.4181c.1936.3951-.658.0275-1.6809-.4888-1.0228-.5163-2.2168-1.1814-2.7347-1.5732-.5179-.3919-.3596-.5105.5223-1.3318.8818-.8212 2.4872-2.3449 2.8115-2.3482.3243-.0031-.6326 1.514-.4916 2.8515s1.3798 2.4955 1.5734 2.8905z" stroke="#fff"/><path d="m39.131 16.7057c.9568-1.1714 2.2056-3.5747 3.4245-3.6939 1.2188-.1191 2.4078 2.0459 3.4205 3.2395 1.0128 1.1936 1.8494 1.4157 1.3851-.0758-.4642-1.4914-2.2294-4.6964-3.7775-5.398-1.5482-.7017-2.8795 1.0999-3.9665 2.6801-1.087 1.5804-1.9296 2.9391-2.0186 3.6488-.089.7099.5757.7706 1.5325-.4007z" stroke="#fff"/><path d="m49.2101 14.7285c.2841-.3483.3555.4982.3692 1.5521.0137 1.054-.0304 2.3153-.1492 2.9142-.1188.5988-.3124.5351-1.545.2597-1.2326-.2757-3.5041-.7627-3.6694-1.0135-.1653-.2506 1.7757-.2647 2.9946-1.0432 1.2189-.7784 1.7157-2.3211 1.9998-2.6693z" stroke="#fff"/></g></g></svg>

﻿<?xml version="1.0" encoding="utf-8"?>
<!DOCTYPE svg PUBLIC "-//W3C//DTD SVG 1.1//EN" "http://www.w3.org/Graphics/SVG/1.1/DTD/svg11.dtd">
<svg xmlns="http://www.w3.org/2000/svg" xmlns:xlink="http://www.w3.org/1999/xlink" version="1.1" baseProfile="full" width="58.3182" height="58.8058" viewBox="0 0 58.32 58.81" enable-background="new 0 0 58.32 58.81" xml:space="preserve">
	<g>
		<ellipse fill="#16376C" fill-opacity="1" stroke-width="0.2" stroke-linejoin="round" cx="29.6619" cy="29.2303" rx="28.6563" ry="28.9029"/>
		<path fill="#339B2C" fill-opacity="1" stroke-width="0.2" stroke-linejoin="round" d="M 30.6977,0.672607C 41.9385,1.95166 47.0485,7.52319 44.212,7.13391C 34.1502,5.75281 31.7601,8.79382 31.5854,8.90955C 23.176,14.4829 25.6807,23.0686 29.9085,28.5398C 38.2933,39.3907 33.4597,46.6904 30.895,49.2552C 22.0837,58.0665 1.59746,49.9457 2.04132,29.5756C 2.38908,13.6168 14.971,-1.11682 30.6977,0.672607 Z "/>
		<ellipse fill="none" stroke-linejoin="round" stroke="#16376C" stroke-opacity="1" cx="29.1563" cy="29.4029" rx="28.6563" ry="28.9029"/>
		<radialGradient id="SVGID_Stroke1_" cx="19.1434" cy="35.998" r="11.6018" gradientUnits="userSpaceOnUse">
			<stop offset="0" stop-color="#F3F8F8" stop-opacity="1"/>
			<stop offset="1" stop-color="#00EEFC" stop-opacity="1"/>
		</radialGradient>
		<path fill="#FFFFFF" fill-opacity="1" stroke-linejoin="round" stroke="url(#SVGID_Stroke1_)" d="M 11.4641,47.2805L 16.5451,47.2805L 16.7761,39.7234L 17.4689,37.0624L 18.8547,35.5723L 20.5868,35.7852L 22.4344,36.9559L 24.975,40.1492L 26.0143,40.8942L 28.5547,41.1071L 29.9405,41.1071L 30.0559,39.0847L 26.2452,35.5723L 23.5892,33.8693L 21.2797,32.5919L 24.1666,29.2924L 25.6678,26.4186L 26.2452,25.0348L 23.9357,25.8864L 21.5107,28.5474L 19.7785,30.0375L 18.6237,30.5697L 16.3142,29.7181L 14.9285,29.3988L 14.1201,30.2504L 14.1201,28.973L 13.6582,28.0151L 10.3094,24.8219L 9.27007,24.7155L 9.38554,26.525L 11.3487,28.8666L 12.3879,29.3988L 8.23077,29.3988L 9.50102,30.889L 13.1963,30.5697L 11.2332,31.7405L 9.96294,32.4856L 9.73198,33.4435L 10.8867,33.6564L 11.9261,33.1241L 13.1963,32.3792L 14.1201,32.2727L 15.0439,33.5499L 14.0046,36.1045L 12.9653,37.701L 12.0415,40.0427L 11.4641,42.7037L 11.4641,47.2805 Z "/>
		<radialGradient id="SVGID_Stroke2_" cx="18.335" cy="27.0573" r="2.82919" gradientUnits="userSpaceOnUse">
			<stop offset="0" stop-color="#F3F8F8" stop-opacity="1"/>
			<stop offset="1" stop-color="#00EEFC" stop-opacity="1"/>
		</radialGradient>
		<path fill="#FFFFFF" fill-opacity="1" stroke-linejoin="round" stroke="url(#SVGID_Stroke2_)" d="M 18.2773,24.9283L 16.8916,25.2477L 16.1987,26.3121L 15.8523,28.0151L 16.5451,28.973L 17.4689,28.7601L 17.8154,28.0151L 18.6622,28.0861L 18.7392,28.6537L 19.2781,29.1505L 20.2019,28.6537L 20.4713,27.5894L 20.8178,26.4186L 20.1249,25.2477L 18.2773,24.9283 Z "/>
		<g>
			<path fill="#FFFFFF" fill-opacity="1" stroke-linejoin="round" stroke="#FFFFFF" stroke-opacity="1" d="M 39.5859,27.7274C 37.9784,27.5687 35.037,27.799 34.3128,26.9102C 33.5885,26.0215 35.0812,24.0139 35.7255,22.6293C 36.3697,21.2445 36.1655,20.4825 34.9598,21.5895C 33.7542,22.6964 31.5471,25.6722 31.6448,27.2275C 31.7425,28.7828 34.1449,28.9177 36.2118,28.9733C 38.2787,29.0288 40.0099,29.005 40.7386,28.7194C 41.4673,28.4337 41.1935,27.8861 39.5859,27.7274 Z "/>
			<path fill="#FFFFFF" fill-opacity="1" stroke-linejoin="round" stroke="#FFFFFF" stroke-opacity="1" d="M 32.6404,20.8744C 32.1627,20.8274 32.9429,20.3488 33.9521,19.811C 34.9612,19.2734 36.1993,18.6771 36.836,18.4701C 37.4727,18.2631 37.508,18.4456 37.8587,19.5422C 38.2095,20.6389 38.8756,22.6498 38.7166,22.9037C 38.5576,23.1576 37.5735,21.6547 36.2136,21.0956C 34.8537,20.5365 33.1181,20.9213 32.6404,20.8744 Z "/>
		</g>
		<g>
			<path fill="#FFFFFF" fill-opacity="1" stroke-linejoin="round" stroke="#FFFFFF" stroke-opacity="1" d="M 49.8206,21.588C 50.4714,22.9181 52.1639,25.0913 51.6693,26.0991C 51.1747,27.1071 48.493,26.9495 46.836,27.1405C 45.179,27.3317 44.5466,27.8715 46.2165,28.2561C 47.8865,28.6406 51.8587,28.8699 53.3092,28.0162C 54.7597,27.1625 53.6885,25.226 52.7086,23.5902C 51.7287,21.9545 50.8401,20.6194 50.2004,20.1953C 49.5607,19.7712 49.1698,20.2579 49.8206,21.588 Z "/>
			<path fill="#FFFFFF" fill-opacity="1" stroke-linejoin="round" stroke="#FFFFFF" stroke-opacity="1" d="M 46.6869,30.4181C 46.8805,30.8132 46.0289,30.4456 45.006,29.9293C 43.9832,29.413 42.7892,28.7479 42.2713,28.3561C 41.7534,27.9642 41.9117,27.8456 42.7936,27.0243C 43.6754,26.2031 45.2808,24.6794 45.6051,24.6761C 45.9294,24.673 44.9725,26.1901 45.1135,27.5276C 45.2545,28.8651 46.4933,30.0231 46.6869,30.4181 Z "/>
		</g>
		<g>
			<path fill="#FFFFFF" fill-opacity="1" stroke-linejoin="round" stroke="#FFFFFF" stroke-opacity="1" d="M 39.131,16.7057C 40.0878,15.5343 41.3366,13.131 42.5555,13.0118C 43.7743,12.8927 44.9633,15.0577 45.976,16.2513C 46.9888,17.4449 47.8254,17.667 47.3611,16.1755C 46.8969,14.6841 45.1317,11.4791 43.5836,10.7775C 42.0354,10.0758 40.7041,11.8774 39.6171,13.4576C 38.5301,15.038 37.6875,16.3967 37.5985,17.1064C 37.5095,17.8163 38.1742,17.877 39.131,16.7057 Z "/>
			<path fill="#FFFFFF" fill-opacity="1" stroke-linejoin="round" stroke="#FFFFFF" stroke-opacity="1" d="M 49.2101,14.7285C 49.4942,14.3802 49.5656,15.2267 49.5793,16.2806C 49.593,17.3346 49.5489,18.5959 49.4301,19.1948C 49.3113,19.7936 49.1177,19.7299 47.8851,19.4545C 46.6525,19.1788 44.381,18.6918 44.2157,18.441C 44.0504,18.1904 45.9914,18.1763 47.2103,17.3978C 48.4292,16.6194 48.926,15.0767 49.2101,14.7285 Z "/>
		</g>
	</g>
</svg>
